X: 30415
T: Old Tom Of Oxford
R: reel
M: 4/4
K: Gmajor
|:Bc|d2ef g2d2|c2B2 A2BA|G2Bc d2g2|f2g2 a2gf|
d2ef g2d2|c2B2 A2ef|g2d2 c2B2|A4 G2:|
|:dc|Bcd2 B2d2|B2d2 gfed|c2e2 c2e2|c2e2 agfe|
B2d2 B2c2|d2ef g2f2|g2d2 c2B2|A4 G2:|

